Numix-GalliumOS/24/categories/preferences-system-directory.svg

<?xml version="1.0" encoding="UTF-8" standalone="no"?>
<svg
   xmlns:dc="http://purl.org/dc/elements/1.1/"
   xmlns:cc="http://creativecommons.org/ns#"
   xmlns:rdf="http://www.w3.org/1999/02/22-rdf-syntax-ns#"
   xmlns:svg="http://www.w3.org/2000/svg"
   xmlns="http://www.w3.org/2000/svg"
   xmlns:sodipodi="http://sodipodi.sourceforge.net/DTD/sodipodi-0.dtd"
   xmlns:inkscape="http://www.inkscape.org/namespaces/inkscape"
   width="24"
   height="24"
   viewBox="0 0 19.2 19.2"
   id="svg2"
   version="1.1"
   inkscape:version="0.91 r"
   sodipodi:docname="preferences-system-directory.svg">
  <metadata
     id="metadata16">
    <rdf:RDF>
      <cc:Work
         rdf:about="">
        <dc:format>image/svg+xml</dc:format>
        <dc:type
           rdf:resource="http://purl.org/dc/dcmitype/StillImage" />
        <dc:title />
      </cc:Work>
    </rdf:RDF>
  </metadata>
  <defs
     id="defs14" />
  <sodipodi:namedview
     pagecolor="#ffffff"
     bordercolor="#666666"
     borderopacity="1"
     objecttolerance="10"
     gridtolerance="10"
     guidetolerance="10"
     inkscape:pageopacity="0"
     inkscape:pageshadow="2"
     inkscape:window-width="1680"
     inkscape:window-height="1026"
     id="namedview12"
     showgrid="true"
     inkscape:zoom="19.873684"
     inkscape:cx="11.241528"
     inkscape:cy="10.980503"
     inkscape:window-x="0"
     inkscape:window-y="24"
     inkscape:window-maximized="1"
     inkscape:current-layer="svg2">
    <inkscape:grid
       type="xygrid"
       id="grid4147" />
  </sodipodi:namedview>
  <path
     style="fill:#555555"
     inkscape:connector-curvature="0"
     id="path6"
     d="m 16,8.307768 0,2.584464 C 16,11.061899 15.818495,11.2 15.597534,11.2 l -2.395068,0 C 12.979531,11.2 12.8,11.061899 12.8,10.892232 l 0,-2.584464 C 12.8,8.1381015 12.979531,8 13.202466,8 l 2.395068,0 C 15.818495,8 16,8.1381015 16,8.307768 Z" />
  <path
     style="fill:#555555"
     inkscape:connector-curvature="0"
     id="path8"
     d="m 11.2,8.307768 0,2.584464 C 11.2,11.061899 11.018496,11.2 10.797534,11.2 l -2.395068,0 C 8.179531,11.2 8,11.061899 8,10.892232 L 8,8.307768 C 8,8.1381015 8.179531,8 8.402466,8 l 2.395068,0 C 11.018496,8 11.2,8.1381015 11.2,8.307768 Z" />
  <path
     style="fill:#555555"
     inkscape:connector-curvature="0"
     id="path10"
     d="m 6.4,8.307768 0,2.584464 C 6.4,11.061899 6.218496,11.2 5.997534,11.2 l -2.395068,0 C 3.3795316,11.2 3.2,11.061899 3.2,10.892232 l 0,-2.584464 C 3.2,8.1381015 3.3795316,8 3.602466,8 L 5.997534,8 C 6.218496,8 6.4,8.1381015 6.4,8.307768 Z" />
</svg>

<svg xmlns="http://www.w3.org/2000/svg" width="24" height="24" viewBox="0 0 19.2 19.2">
 <path d="m 16 8.308 0 2.584 c 0 0.17 -0.182 0.308 -0.402 0.308 l -2.395 0 c -0.223 0 -0.402 -0.138 -0.402 -0.308 l 0 -2.584 c 0 -0.17 0.18 -0.308 0.402 -0.308 l 2.395 0 c 0.221 0 0.402 0.138 0.402 0.308" style="fill:#555"/>
 <path d="m 11.2 8.308 0 2.584 c 0 0.17 -0.182 0.308 -0.402 0.308 l -2.395 0 c -0.223 0 -0.402 -0.138 -0.402 -0.308 l 0 -2.584 c 0 -0.17 0.18 -0.308 0.402 -0.308 l 2.395 0 c 0.221 0 0.402 0.138 0.402 0.308" style="fill:#555"/>
 <path d="m 6.4 8.308 0 2.584 c 0 0.17 -0.182 0.308 -0.402 0.308 l -2.395 0 c -0.223 0 -0.402 -0.138 -0.402 -0.308 l 0 -2.584 c 0 -0.17 0.18 -0.308 0.402 -0.308 l 2.395 0 c 0.221 0 0.402 0.138 0.402 0.308" style="fill:#555"/>
</svg>
